assets/img/portfolio/mos-product-specifications-tab.svg

<svg xmlns="http://www.w3.org/2000/svg" width="512" height="512" fill="none" viewBox="0 0 512 512"><g clip-path="url(#a)"><path fill="#ccc" d="M0 0h512v512H0z"/><path fill="#fff" d="M164 328.105h76.635q0 21.498.569 27.205.57 5.517 4.553 9.323 4.173 3.805 11.191 3.805 5.88 0 9.675-3.615 3.793-3.615 4.173-9.322.569-5.708.569-23.021v-49.084q-5.691 12.366-17.072 18.644-11.382 6.088-28.264 6.088-21.055 0-37.18-11.415-16.124-11.415-20.486-27.396Q164 253.337 164 226.131v-24.542q0-32.343 2.466-48.134 2.656-15.79 13.278-29.108 10.623-13.508 29.402-20.927T252.775 96q30.73 0 50.458 8.561t30.54 24.733q10.813 15.98 12.52 33.674t1.707 68.49v42.806q0 54.982-1.518 73.627-1.517 18.453-13.278 35.006-11.57 16.551-31.489 24.922Q281.798 416 255.621 416q-32.438 0-53.114-10.464-20.486-10.464-29.592-29.488Q164 357.022 164 328.105m76.635-96.076q0 19.405 4.932 23.971 5.121 4.566 10.433 4.566 7.966 0 11.571-5.707 3.794-5.898 3.794-22.83v-55.744q0-20.356-3.604-26.635-3.415-6.278-11.571-6.278-4.932 0-10.244 4.947-5.311 4.756-5.311 26.064z"/><g clip-path="url(#b)"><path fill="#999" d="M392 392h120v120H392z"/><g fill="#fff" clip-path="url(#c)"><path d="M477.312 407h-50.624C415.814 407 407 415.814 407 426.688v50.624c0 10.874 8.814 19.688 19.688 19.688h50.624c10.874 0 19.688-8.814 19.688-19.688v-50.624c0-10.874-8.814-19.688-19.688-19.688m14.063 70.312c0 7.767-6.296 14.063-14.063 14.063h-50.624c-7.767 0-14.063-6.296-14.063-14.063v-50.624c0-7.767 6.296-14.063 14.063-14.063h50.624c7.767 0 14.063 6.296 14.063 14.063z"/><path d="M435.125 426.688H429.5a2.81 2.81 0 0 0-2.812 2.812v5.625a2.813 2.813 0 0 0 2.812 2.813h5.625a2.814 2.814 0 0 0 2.813-2.813V429.5a2.813 2.813 0 0 0-2.813-2.812m0 19.687H429.5a2.81 2.81 0 0 0-2.812 2.813v5.624a2.81 2.81 0 0 0 2.812 2.813h5.625a2.813 2.813 0 0 0 2.813-2.813v-5.624a2.813 2.813 0 0 0-2.813-2.813m0 19.687H429.5a2.813 2.813 0 0 0-2.812 2.813v5.625a2.81 2.81 0 0 0 2.812 2.812h5.625a2.813 2.813 0 0 0 2.813-2.812v-5.625a2.814 2.814 0 0 0-2.813-2.813m8.437-36.562h33.75v5.625h-33.75zm0 19.688h33.75v5.624h-33.75zm0 19.687h33.75v5.625h-33.75z"/></g></g></g><defs><clipPath id="a"><path fill="#fff" d="M0 0h512v512H0z"/></clipPath><clipPath id="b"><path fill="#fff" d="M392 392h120v120H392z"/></clipPath><clipPath id="c"><path fill="#fff" d="M407 407h90v90h-90z"/></clipPath></defs></svg>

<svg width="512" height="512" viewBox="0 0 512 512" fill="none" xmlns="http://www.w3.org/2000/svg">
<g clip-path="url(#clip0_71_10)">
<path d="M0 0H512V512H0V0Z" fill="#CCCCCC"/>
<path d="M164 328.105H240.635C240.635 342.437 240.825 351.505 241.204 355.31C241.584 358.988 243.101 362.096 245.757 364.633C248.539 367.169 252.269 368.438 256.948 368.438C260.869 368.438 264.093 367.233 266.623 364.823C269.152 362.413 270.543 359.306 270.796 355.501C271.175 351.696 271.365 344.022 271.365 332.48V283.396C267.571 291.64 261.88 297.855 254.293 302.04C246.705 306.099 237.284 308.128 226.029 308.128C211.992 308.128 199.599 304.323 188.849 296.713C178.1 289.103 171.271 279.971 168.363 269.317C165.454 258.663 164 244.268 164 226.131V201.589C164 180.027 164.822 163.983 166.466 153.455C168.236 142.928 172.663 133.226 179.744 124.347C186.826 115.342 196.627 108.366 209.146 103.42C221.666 98.4732 236.209 96 252.775 96C273.262 96 290.081 98.8537 303.233 104.561C316.385 110.269 326.565 118.513 333.773 129.294C340.981 139.948 345.155 151.172 346.293 162.968C347.431 174.763 348 197.593 348 231.458V274.264C348 310.919 347.494 335.461 346.482 347.891C345.471 360.193 341.045 371.862 333.204 382.897C325.49 393.931 314.994 402.239 301.715 407.819C288.437 413.273 273.072 416 255.621 416C233.996 416 216.291 412.512 202.507 405.536C188.849 398.56 178.986 388.731 172.915 376.048C166.972 363.364 164 347.383 164 328.105ZM240.635 232.029C240.635 244.966 242.279 252.956 245.567 256C248.981 259.044 252.459 260.566 256 260.566C261.311 260.566 265.168 258.663 267.571 254.859C270.1 250.927 271.365 243.317 271.365 232.029V176.285C271.365 162.714 270.164 153.836 267.761 149.65C265.485 145.465 261.627 143.372 256.19 143.372C252.902 143.372 249.487 145.021 245.946 148.319C242.405 151.489 240.635 160.178 240.635 174.383V232.029Z" fill="white"/>
<g clip-path="url(#clip1_71_10)">
<rect width="120" height="120" transform="translate(392 392)" fill="#999999"/>
<g clip-path="url(#clip2_71_10)">
<path d="M477.312 407H426.688C415.814 407 407 415.814 407 426.688V477.312C407 488.186 415.814 497 426.688 497H477.312C488.186 497 497 488.186 497 477.312V426.688C497 415.814 488.186 407 477.312 407ZM491.375 477.312C491.375 485.079 485.079 491.375 477.312 491.375H426.688C418.921 491.375 412.625 485.079 412.625 477.312V426.688C412.625 418.921 418.921 412.625 426.688 412.625H477.312C485.079 412.625 491.375 418.921 491.375 426.688V477.312Z" fill="white"/>
<path d="M435.125 426.688H429.5C427.947 426.688 426.688 427.947 426.688 429.5V435.125C426.688 436.678 427.947 437.938 429.5 437.938H435.125C436.678 437.938 437.938 436.678 437.938 435.125V429.5C437.938 427.947 436.678 426.688 435.125 426.688ZM435.125 446.375H429.5C427.947 446.375 426.688 447.634 426.688 449.188V454.812C426.688 456.366 427.947 457.625 429.5 457.625H435.125C436.678 457.625 437.938 456.366 437.938 454.812V449.188C437.938 447.634 436.678 446.375 435.125 446.375ZM435.125 466.062H429.5C427.947 466.062 426.688 467.322 426.688 468.875V474.5C426.688 476.053 427.947 477.312 429.5 477.312H435.125C436.678 477.312 437.938 476.053 437.938 474.5V468.875C437.938 467.322 436.678 466.062 435.125 466.062ZM443.562 429.5H477.312V435.125H443.562V429.5ZM443.562 449.188H477.312V454.812H443.562V449.188ZM443.562 468.875H477.312V474.5H443.562V468.875Z" fill="white"/>
</g>
</g>
</g>
<defs>
<clipPath id="clip0_71_10">
<rect width="512" height="512" fill="white"/>
</clipPath>
<clipPath id="clip1_71_10">
<rect width="120" height="120" fill="white" transform="translate(392 392)"/>
</clipPath>
<clipPath id="clip2_71_10">
<rect width="90" height="90" fill="white" transform="translate(407 407)"/>
</clipPath>
</defs>
</svg>
